X:840
T:Drover Lads, The
T:Gillan An Drover
B:Kerr's Merry Melodies, Book 3
Z:Nigel Gatherer
M:6/8
L:1/8
K:G
B|GBd g2 B|agf g2 e|dBB B2 e|dBB B2 A|GBd g2 d|agf g2 e|
dBA A2 e|dBA A2::B|GBG dBd|ege dBG|dBB B2 e|
dBB B2 A|GBG dBd|ege dBG|dBA A2 e|dBA A2:|
